Sources/FrostedUI/Resources/Icons.xcassets/beakerFilled20.imageset/beaker-filled-20.svg

<svg width="20" height="20" viewBox="0 0 20 20" fill="none" xmlns="http://www.w3.org/2000/svg" data-fui-icon="true">
  <path
    d="M14.7498 1C15.164 1 15.4998 1.33579 15.4998 1.75C15.4998 2.16421 15.164 2.5 14.7498 2.5H13.4998V7.78906C13.4998 7.98351 13.5618 8.17309 13.6765 8.33008L18.6677 15.1572C19.8348 16.7539 18.6944 19 16.7166 19H3.28296C1.30543 18.9998 0.164944 16.7538 1.33179 15.1572L6.323 8.33008C6.4378 8.17306 6.49976 7.98357 6.49976 7.78906V2.5H5.24976C4.83569 2.49982 4.49976 2.1641 4.49976 1.75C4.49976 1.3359 4.83569 1.00018 5.24976 1H14.7498ZM7.20679 12.9814C6.42674 12.8417 5.52622 12.9216 4.36597 13.5713L4.3562 13.5605L2.54272 16.042C2.1002 16.6475 2.53299 17.4998 3.28296 17.5H16.7166C17.4668 17.5 17.8996 16.6476 17.4568 16.042L15.8953 13.9072C14.7138 14.6795 13.6453 14.9706 12.6267 14.9258C11.4856 14.8754 10.5055 14.404 9.66089 13.9766C8.775 13.5282 8.03619 13.1301 7.20679 12.9814Z"
    fill="currentColor"
  />
</svg>

<svg xmlns="http://www.w3.org/2000/svg" width="20" height="20" fill="none" data-fui-icon="true" viewBox="0 0 20 20"><path fill="currentColor" d="M14.75 1a.75.75 0 0 1 0 1.5H13.5v5.29c0 .194.062.383.177.54l4.99 6.827c1.168 1.597.027 3.843-1.95 3.843H3.283c-1.978 0-3.118-2.246-1.951-3.843L6.323 8.33a.9.9 0 0 0 .177-.54V2.5H5.25a.75.75 0 0 1 0-1.5zM7.207 12.981c-.78-.14-1.68-.06-2.841.59l-.01-.01-1.813 2.481a.917.917 0 0 0 .74 1.458h13.434a.917.917 0 0 0 .74-1.458l-1.562-2.135c-1.181.773-2.25 1.064-3.268 1.019-1.141-.05-2.122-.522-2.966-.95-.886-.448-1.625-.846-2.454-.995"/></svg>
